resources/SLDS/icons/standard/work_plan.svg

<svg xmlns="http://www.w3.org/2000/svg" height="100" width="100" viewBox="0 0 100 100" fill="#fff"><path d="M39 32h22a2 2 0 0 0 2-2v-4a6 6 0 0 0-6-6H43a6 6 0 0 0-6 6v4a2 2 0 0 0 2 2zm33-7h-2a1 1 0 0 0-1 1v4a8 8 0 0 1-8 8H39a8 8 0 0 1-8-8v-4a1 1 0 0 0-1-1h-2a6 6 0 0 0-6 6v43a6 6 0 0 0 6 6h44a6 6 0 0 0 6-6V31a6 6 0 0 0-6-6zM39 68a2 2 0 0 1-2 2h-2a2 2 0 0 1-2-2v-2a2 2 0 0 1 2-2h2a2 2 0 0 1 2 2zm0-10a2 2 0 0 1-2 2h-2a2 2 0 0 1-2-2v-2a2 2 0 0 1 2-2h2a2 2 0 0 1 2 2zm0-10a2 2 0 0 1-2 2h-2a2 2 0 0 1-2-2v-2a2 2 0 0 1 2-2h2a2 2 0 0 1 2 2zm28 20a2 2 0 0 1-2 2H45a2 2 0 0 1-2-2v-2a2 2 0 0 1 2-2h20a2 2 0 0 1 2 2zm0-10a2 2 0 0 1-2 2H45a2 2 0 0 1-2-2v-2a2 2 0 0 1 2-2h20a2 2 0 0 1 2 2zm0-10a2 2 0 0 1-2 2H45a2 2 0 0 1-2-2v-2a2 2 0 0 1 2-2h20a2 2 0 0 1 2 2z"/></svg>

<svg xmlns="http://www.w3.org/2000/svg" width="100" height="100" viewBox="0 0 100 100">
	<path d="M39,32H61a2,2,0,0,0,2-2V26a6,6,0,0,0-6-6H43a6,6,0,0,0-6,6v4A2,2,0,0,0,39,32Zm33-7H70a.94.94,0,0,0-1,1v4a8,8,0,0,1-8,8H39a8,8,0,0,1-8-8V26a.94.94,0,0,0-1-1H28a6,6,0,0,0-6,6V74a6,6,0,0,0,6,6H72a6,6,0,0,0,6-6V31A6,6,0,0,0,72,25ZM39,68a2,2,0,0,1-2,2H35a2,2,0,0,1-2-2V66a2,2,0,0,1,2-2h2a2,2,0,0,1,2,2Zm0-10a2,2,0,0,1-2,2H35a2,2,0,0,1-2-2V56a2,2,0,0,1,2-2h2a2,2,0,0,1,2,2Zm0-10a2,2,0,0,1-2,2H35a2,2,0,0,1-2-2V46a2,2,0,0,1,2-2h2a2,2,0,0,1,2,2ZM67,68a2,2,0,0,1-2,2H45a2,2,0,0,1-2-2V66a2,2,0,0,1,2-2H65a2,2,0,0,1,2,2Zm0-10a2,2,0,0,1-2,2H45a2,2,0,0,1-2-2V56a2,2,0,0,1,2-2H65a2,2,0,0,1,2,2Zm0-10a2,2,0,0,1-2,2H45a2,2,0,0,1-2-2V46a2,2,0,0,1,2-2H65a2,2,0,0,1,2,2Z" fill="#fff" />
</svg>
